;FLAVOR:Marlin
;TIME:1311
;Filament used: 0.67923m
;Layer height: 0.2
;MINX:96.021
;MINY:96.031
;MINZ:0.2
;MAXX:138.965
;MAXY:138.972
;MAXZ:9
;Generated with Cura_SteamEngine 4.7.0
M140 S50
M105
M190 S50
M104 S200
M105
M109 S200
M82 ;absolute extrusion mode
; Ender 3 Custom Start G-code
G92 E0 ; Reset Extruder
G28 ; Home all axes
G1 Z2.0 F3000 ; Move Z Axis up little to prevent scratching of Heat Bed
G1 X0.1 Y20 Z0.3 F5000.0 ; Move to start position
G1 X0.1 Y200.0 Z0.3 F1500.0 E15 ; Draw the first line
G1 X0.4 Y200.0 Z0.3 F5000.0 ; Move to side a little
G1 X0.4 Y20 Z0.3 F1500.0 E30 ; Draw the second line
G92 E0 ; Reset Extruder
G1 Z2.0 F3000 ; Move Z Axis up little to prevent scratching of Heat Bed
G1 X5 Y20 Z0.3 F5000.0 ; Move over to prevent blob squish
G92 E0
G92 E0
G1 F2700 E-5
;LAYER_COUNT:45
;LAYER:0
M107
G0 F6000 X102.67 Y101.933 Z0.2
;TYPE:SKIRT
G1 F2700 E0
G1 F1200 X103.174 Y101.489 E0.02234
G1 X103.914 Y100.875 E0.05432
G1 X104.072 Y100.746 E0.06111
G1 X104.39 Y100.493 E0.07462
G1 X104.907 Y100.092 E0.09638
G1 X105.672 Y99.549 E0.12759
G1 X106.255 Y99.197 E0.15024
G1 X107.181 Y98.676 E0.18558
G1 X107.504 Y98.5 E0.19781
G1 X107.661 Y98.417 E0.20372
G1 X108.243 Y98.115 E0.22552
G1 X109.093 Y97.719 E0.25671
G1 X109.708 Y97.485 E0.2786
G1 X110.62 Y97.169 E0.3107
G1 X110.813 Y97.104 E0.31747
G1 X111.08 Y97.017 E0.32681
G1 X111.843 Y96.781 E0.35338
G1 X112.751 Y96.543 E0.3846
G1 X113.389 Y96.424 E0.40618
G1 X114.442 Y96.26 E0.44163
G1 X114.691 Y96.224 E0.45
G1 X114.959 Y96.189 E0.45899
G1 X115.634 Y96.107 E0.4816
G1 X116.569 Y96.034 E0.5128
G1 X117.243 Y96.031 E0.53521
G1 X118.218 Y96.056 E0.56765
G1 X118.441 Y96.064 E0.57507
G1 X118.79 Y96.081 E0.5867
G1 X119.491 Y96.123 E0.61005
G1 X120.424 Y96.219 E0.64125
G1 X121.066 Y96.332 E0.66293
G1 X122.05 Y96.536 E0.69635
G1 X122.283 Y96.587 E0.70429
G1 X122.627 Y96.667 E0.71603
G1 X123.274 Y96.825 E0.73819
G1 X124.174 Y97.086 E0.76935
G1 X124.786 Y97.312 E0.79105
G1 X125.751 Y97.702 E0.82567
G1 X126.107 Y97.852 E0.83852
G1 X126.288 Y97.931 E0.84509
G1 X126.88 Y98.195 E0.86665
G1 X127.72 Y98.613 E0.89785
G1 X128.279 Y98.944 E0.91946
G1 X129.114 Y99.472 E0.95232
G1 X129.292 Y99.587 E0.95937
G1 X129.616 Y99.802 E0.9723
G1 X130.165 Y100.176 E0.99439
G1 X130.917 Y100.737 E1.0256
G1 X131.417 Y101.169 E1.04758
G1 X132.148 Y101.841 E1.0806
G1 X132.48 Y102.156 E1.09582
G1 X132.609 Y102.281 E1.1018
G1 X133.067 Y102.733 E1.1232
G1 X133.706 Y103.419 E1.15438
G1 X134.11 Y103.922 E1.17584
G1 X134.715 Y104.721 E1.20917
G1 X134.98 Y105.082 E1.22407
G1 X135.435 Y105.725 E1.25027
G1 X135.943 Y106.513 E1.28145
G1 X136.267 Y107.109 E1.30401
G1 X136.74 Y108.046 E1.33892
G1 X136.959 Y108.499 E1.35566
G1 X137.255 Y109.136 E1.37902
G1 X137.613 Y110.002 E1.41019
G1 X137.824 Y110.64 E1.43254
G1 X138.096 Y111.556 E1.46432
G1 X138.155 Y111.762 E1.47145
G1 X138.263 Y112.159 E1.48513
G1 X138.425 Y112.777 E1.50638
G1 X138.624 Y113.693 E1.53756
G1 X138.72 Y114.37 E1.5603
G1 X138.833 Y115.403 E1.59486
G1 X138.871 Y115.807 E1.60836
G1 X138.933 Y116.605 E1.63498
G1 X138.965 Y117.543 E1.6662
G1 X138.937 Y118.22 E1.68873
G1 X138.866 Y119.22 E1.72208
G1 X138.833 Y119.617 E1.73533
G1 X138.816 Y119.798 E1.74137
G1 X138.747 Y120.46 E1.76351
G1 X138.61 Y121.388 E1.79471
G1 X138.462 Y122.051 E1.81731
G1 X138.216 Y123.011 E1.85027
G1 X138.057 Y123.591 E1.87027
G1 X137.881 Y124.198 E1.89129
G1 X137.582 Y125.087 E1.92249
G1 X137.311 Y125.728 E1.94563
G1 X136.908 Y126.605 E1.97773
G1 X136.726 Y126.988 E1.99184
G1 X136.645 Y127.155 E1.99801
G1 X136.351 Y127.744 E2.01991
G1 X135.897 Y128.564 E2.05108
G1 X135.525 Y129.132 E2.07366
G1 X134.947 Y129.959 E2.10722
G1 X134.837 Y130.114 E2.11354
G1 X134.598 Y130.441 E2.12701
G1 X134.216 Y130.951 E2.14821
G1 X133.622 Y131.677 E2.17941
G1 X133.168 Y132.157 E2.20138
G1 X132.462 Y132.859 E2.2345
G1 X132.312 Y133.006 E2.24148
G1 X132.031 Y133.273 E2.25437
G1 X131.55 Y133.72 E2.27621
G1 X130.837 Y134.328 E2.30738
G1 X130.297 Y134.724 E2.32965
G1 X129.454 Y135.304 E2.36369
G1 X129.259 Y135.435 E2.3715
G1 X128.947 Y135.64 E2.38392
G1 X128.432 Y135.97 E2.40426
G1 X127.621 Y136.442 E2.43547
G1 X127.009 Y136.74 E2.45811
G1 X126.113 Y137.143 E2.49079
G1 X125.934 Y137.222 E2.49729
G1 X125.552 Y137.384 E2.51109
G1 X124.95 Y137.631 E2.53274
G1 X124.068 Y137.949 E2.56392
G1 X123.433 Y138.128 E2.58586
G1 X122.437 Y138.376 E2.62
G1 X122.187 Y138.435 E2.62855
G1 X121.939 Y138.491 E2.637
G1 X121.261 Y138.637 E2.66007
G1 X120.336 Y138.795 E2.69128
G1 X119.64 Y138.861 E2.71453
G1 X118.597 Y138.927 E2.74929
G1 X118.247 Y138.945 E2.76095
G1 X117.397 Y138.972 E2.78923
G1 X116.459 Y138.961 E2.82043
G1 X115.793 Y138.904 E2.84267
G1 X114.785 Y138.787 E2.87642
G1 X114.379 Y138.734 E2.89004
G1 X114.206 Y138.71 E2.89585
G1 X113.572 Y138.615 E2.91717
G1 X112.651 Y138.436 E2.94837
G1 X112.002 Y138.26 E2.97074
G1 X111.035 Y137.966 E3.00436
G1 X110.827 Y137.901 E3.0116
G1 X110.481 Y137.787 E3.02372
G1 X109.879 Y137.583 E3.04486
G1 X109.004 Y137.244 E3.07607
G1 X108.373 Y136.944 E3.09931
G1 X107.474 Y136.481 E3.13294
G1 X107.295 Y136.387 E3.13967
G1 X106.978 Y136.215 E3.15166
G1 X106.396 Y135.891 E3.17382
G1 X105.596 Y135.4 E3.20504
G1 X105.047 Y135.005 E3.22753
G1 X104.116 Y134.289 E3.2666
G1 X103.981 Y134.182 E3.27233
G1 X103.284 Y133.611 E3.30229
G1 X102.585 Y132.986 E3.33348
G1 X102.108 Y132.491 E3.35635
G1 X101.466 Y131.782 E3.38816
G1 X101.154 Y131.428 E3.40385
G1 X100.653 Y130.841 E3.42952
G1 X100.076 Y130.101 E3.46073
G1 X99.697 Y129.533 E3.48344
G1 X99.167 Y128.683 E3.51676
G1 X99.056 Y128.502 E3.52382
G1 X98.859 Y128.169 E3.53669
G1 X98.534 Y127.607 E3.55828
G1 X98.099 Y126.776 E3.58948
G1 X97.834 Y126.163 E3.61169
G1 X97.458 Y125.217 E3.64555
G1 X97.382 Y125.022 E3.65251
G1 X97.305 Y124.817 E3.65979
G1 X97.028 Y124.045 E3.68707
G1 X96.75 Y123.149 E3.71828
G1 X96.603 Y122.518 E3.73982
G1 X96.404 Y121.532 E3.77328
G1 X96.362 Y121.312 E3.78073
G1 X96.317 Y121.063 E3.78915
G1 X96.189 Y120.296 E3.81501
G1 X96.075 Y119.365 E3.84621
G1 X96.042 Y118.703 E3.86825
G1 X96.023 Y117.71 E3.90128
G1 X96.021 Y117.5 E3.90827
G1 X96.022 Y117.114 E3.92111
G1 X96.031 Y116.463 E3.94276
G1 X96.084 Y115.527 E3.97394
G1 X96.171 Y114.86 E3.99632
G1 X96.331 Y113.87 E4.02967
G1 X96.368 Y113.654 E4.03696
G1 X96.446 Y113.234 E4.05117
G1 X96.561 Y112.649 E4.071
G1 X96.781 Y111.738 E4.10217
G1 X96.982 Y111.108 E4.12416
G1 X97.321 Y110.148 E4.15802
G1 X97.413 Y109.897 E4.16692
G1 X97.526 Y109.601 E4.17745
G1 X97.767 Y108.986 E4.19942
G1 X98.146 Y108.128 E4.23062
G1 X98.46 Y107.539 E4.25282
G1 X98.97 Y106.647 E4.287
G1 X99.077 Y106.463 E4.29408
G1 X99.261 Y106.157 E4.30595
G1 X99.595 Y105.615 E4.32713
G1 X100.121 Y104.838 E4.35833
G1 X100.541 Y104.307 E4.38085
G1 X101.196 Y103.528 E4.4147
G1 X101.337 Y103.363 E4.42192
G1 X101.564 Y103.105 E4.43335
G1 X102.014 Y102.604 E4.45575
G1 X102.67 Y101.933 E4.48696
G0 F6000 X102.956 Y102.213
G1 F1200 X103.429 Y101.796 E4.50793
G1 X104.169 Y101.182 E4.53992
G1 X104.635 Y100.809 E4.55977
G1 X105.152 Y100.408 E4.58153
G1 X105.904 Y99.876 E4.61217
G1 X106.451 Y99.546 E4.63342
G1 X107.377 Y99.025 E4.66875
G1 X107.694 Y98.852 E4.68077
G1 X107.845 Y98.772 E4.68645
G1 X108.427 Y98.47 E4.70826
G1 X109.262 Y98.082 E4.73888
G1 X109.839 Y97.863 E4.75941
G1 X110.751 Y97.547 E4.79151
G1 X111.204 Y97.398 E4.80737
G1 X111.367 Y97.346 E4.81306
G1 X111.961 Y97.163 E4.83374
G1 X112.852 Y96.93 E4.86437
G1 X113.451 Y96.819 E4.88463
G1 X114.504 Y96.655 E4.92007
G1 X115.008 Y96.586 E4.93699
G1 X115.683 Y96.504 E4.95961
G1 X116.601 Y96.433 E4.99023
G1 X117.233 Y96.43 E5.01125
G1 X118.208 Y96.455 E5.04369
G1 X118.618 Y96.472 E5.05734
G1 X119.467 Y96.522 E5.08563
G1 X120.383 Y96.617 E5.11626
G1 X120.985 Y96.724 E5.13659
G1 X121.969 Y96.928 E5.17002
G1 X122.193 Y96.977 E5.17764
G1 X122.532 Y97.056 E5.18922
G1 X123.179 Y97.214 E5.21137
G1 X124.063 Y97.471 E5.24199
G1 X124.636 Y97.683 E5.26231
G1 X125.601 Y98.073 E5.29693
G1 X125.951 Y98.22 E5.30956
G1 X126.125 Y98.296 E5.31587
G1 X126.717 Y98.56 E5.33743
G1 X127.541 Y98.971 E5.36806
G1 X128.065 Y99.282 E5.38833
G1 X128.9 Y99.81 E5.42118
G1 X129.071 Y99.92 E5.42795
G1 X129.391 Y100.133 E5.44073
G1 X129.94 Y100.507 E5.46283
G1 X130.678 Y101.058 E5.49346
G1 X131.146 Y101.463 E5.51404
G1 X131.877 Y102.135 E5.54707
G1 X132.204 Y102.445 E5.56206
G1 X132.328 Y102.565 E5.5678
G1 X132.786 Y103.017 E5.5892
G1 X133.412 Y103.692 E5.61982
G1 X133.791 Y104.163 E5.63992
G1 X134.396 Y104.962 E5.67326
G1 X134.657 Y105.318 E5.68794
G1 X134.751 Y105.449 E5.6933
G1 X135.108 Y105.955 E5.7139
G1 X135.606 Y106.73 E5.74454
G1 X135.91 Y107.289 E5.7657
G1 X136.383 Y108.226 E5.80061
G1 X136.536 Y108.54 E5.81223
G1 X136.892 Y109.304 E5.84026
G1 X137.243 Y110.155 E5.87088
G1 X137.44 Y110.754 E5.89185
G1 X137.712 Y111.67 E5.92364
G1 X137.769 Y111.868 E5.93049
G1 X137.877 Y112.26 E5.94401
G1 X138.039 Y112.878 E5.96526
G1 X138.233 Y113.778 E5.99588
G1 X138.322 Y114.413 E6.01721
G1 X138.435 Y115.446 E6.05177
G1 X138.455 Y115.644 E6.05839
G1 X138.485 Y115.993 E6.07004
G1 X138.534 Y116.636 E6.09149
G1 X138.564 Y117.556 E6.12211
G1 X138.538 Y118.192 E6.14328
G1 X138.454 Y119.366 E6.18242
G1 X138.418 Y119.757 E6.19548
G1 X138.349 Y120.419 E6.21762
G1 X138.214 Y121.33 E6.24825
G1 X138.074 Y121.951 E6.26943
G1 X137.783 Y123.083 E6.3083
G1 X137.673 Y123.48 E6.322
G1 X137.497 Y124.087 E6.34302
G1 X137.202 Y124.959 E6.37364
G1 X136.948 Y125.561 E6.39537
G1 X136.545 Y126.438 E6.42747
G1 X136.366 Y126.815 E6.44135
G1 X135.993 Y127.565 E6.46921
G1 X135.547 Y128.37 E6.49982
G1 X135.197 Y128.903 E6.52103
G1 X134.619 Y129.73 E6.55459
G1 X134.376 Y130.068 E6.56844
G1 X134.278 Y130.202 E6.57396
G1 X133.896 Y130.712 E6.59515
G1 X133.313 Y131.424 E6.62576
G1 X132.886 Y131.874 E6.64639
G1 X132.18 Y132.576 E6.6795
G1 X131.872 Y132.873 E6.69374
G1 X131.759 Y132.98 E6.69891
G1 X131.278 Y133.427 E6.72075
G1 X130.577 Y134.024 E6.75138
G1 X130.07 Y134.395 E6.77227
G1 X129.227 Y134.975 E6.8063
G1 X129.039 Y135.101 E6.81383
G1 X128.731 Y135.303 E6.82608
G1 X128.216 Y135.633 E6.84643
G1 X127.42 Y136.096 E6.87705
G1 X126.845 Y136.375 E6.89831
G1 X125.949 Y136.778 E6.93099
G1 X125.777 Y136.854 E6.93724
G1 X125.401 Y137.014 E6.95083
G1 X124.799 Y137.261 E6.97248
G1 X123.933 Y137.573 E7.00309
G1 X123.336 Y137.74 E7.02371
G1 X122.34 Y137.988 E7.05785
G1 X122.1 Y138.045 E7.06605
G1 X121.176 Y138.245 E7.0975
G1 X120.269 Y138.4 E7.1281
G1 X119.614 Y138.462 E7.14998
G1 X118.571 Y138.528 E7.18474
G1 X118.229 Y138.545 E7.19613
G1 X117.385 Y138.572 E7.22422
G1 X116.464 Y138.56 E7.25485
G1 X115.839 Y138.506 E7.27572
G1 X114.649 Y138.367 E7.31557
G1 X114.265 Y138.314 E7.32846
G1 X113.631 Y138.219 E7.34978
G1 X112.728 Y138.043 E7.38038
G1 X112.119 Y137.878 E7.40137
G1 X111.152 Y137.584 E7.43498
G1 X110.609 Y137.408 E7.45397
G1 X110.007 Y137.204 E7.47511
G1 X109.149 Y136.871 E7.50572
G1 X108.556 Y136.589 E7.52756
G1 X107.657 Y136.126 E7.56119
G1 X107.172 Y135.866 E7.5795
G1 X106.59 Y135.542 E7.60165
G1 X105.806 Y135.059 E7.63228
G1 X105.29 Y134.687 E7.65344
G1 X104.493 Y134.075 E7.68686
G1 X104.23 Y133.868 E7.69799
G1 X104.09 Y133.755 E7.70397
G1 X103.538 Y133.302 E7.72773
G1 X102.852 Y132.688 E7.75835
G1 X102.405 Y132.223 E7.7798
G1 X101.645 Y131.382 E7.8175
G1 X101.356 Y131.051 E7.83212
G1 X100.957 Y130.582 E7.8526
G1 X100.392 Y129.855 E7.88322
G1 X100.036 Y129.321 E7.90457
G1 X99.506 Y128.471 E7.93788
G1 X99.28 Y128.096 E7.95244
G1 X98.88 Y127.406 E7.97897
G1 X98.454 Y126.59 E8.00959
G1 X98.206 Y126.015 E8.03041
G1 X97.83 Y125.069 E8.06427
G1 X97.757 Y124.881 E8.07098
G1 X97.622 Y124.517 E8.08389
G1 X97.405 Y123.91 E8.10533
G1 X97.133 Y123.031 E8.13594
G1 X96.996 Y122.439 E8.15615
G1 X96.797 Y121.453 E8.1896
G1 X96.756 Y121.241 E8.19678
G1 X96.685 Y120.844 E8.2102
G1 X96.583 Y120.23 E8.2309
G1 X96.472 Y119.316 E8.26152
G1 X96.442 Y118.696 E8.28217
G1 X96.423 Y117.703 E8.3152
G1 X96.421 Y117.5 E8.32195
G1 X96.422 Y117.119 E8.33463
G1 X96.431 Y116.468 E8.35628
G1 X96.484 Y115.549 E8.3869
G1 X96.566 Y114.924 E8.40786
G1 X96.726 Y113.934 E8.44122
G1 X96.762 Y113.725 E8.44827
G1 X96.838 Y113.311 E8.46227
G1 X96.953 Y112.726 E8.4821
G1 X97.17 Y111.832 E8.5127
G1 X97.359 Y111.241 E8.53334
G1 X97.698 Y110.281 E8.5672
G1 X97.787 Y110.04 E8.57574
G1 X97.899 Y109.747 E8.58618
G1 X98.14 Y109.132 E8.60815
G1 X98.513 Y108.29 E8.63878
G1 X98.807 Y107.738 E8.65958
G1 X99.317 Y106.846 E8.69375
G1 X99.421 Y106.668 E8.70061
G1 X99.602 Y106.367 E8.71229
G1 X99.936 Y105.825 E8.73347
G1 X100.452 Y105.063 E8.76407
G1 X100.847 Y104.564 E8.78524
G1 X101.502 Y103.785 E8.81909
G1 X101.771 Y103.475 E8.83274
G1 X102.312 Y102.871 E8.85971
G1 X102.956 Y102.213 E8.89034
G0 F6000 X103.242 Y102.494
G1 F1200 X103.685 Y102.104 E8.90997
G1 X104.425 Y101.49 E8.94195
G1 X104.571 Y101.371 E8.94821
G1 X104.881 Y101.125 E8.96138
G1 X105.398 Y100.724 E8.98314
G1 X106.135 Y100.203 E9.01316
G1 X106.647 Y99.894 E9.03305
G1 X107.573 Y99.373 E9.06839
G1 X107.884 Y99.204 E9.08016
G1 X108.029 Y99.127 E9.08562
G1 X108.611 Y98.825 E9.10743
G1 X109.43 Y98.445 E9.13746
G1 X109.97 Y98.241 E9.15666
G1 X110.882 Y97.925 E9.18876
G1 X111.328 Y97.778 E9.20438
G1 X111.485 Y97.728 E9.20986
G1 X112.079 Y97.545 E9.23053
G1 X112.953 Y97.318 E9.26056
G1 X113.512 Y97.215 E9.27947
G1 X114.565 Y97.051 E9.31491
G1 X114.796 Y97.017 E9.32268
G1 X115.056 Y96.983 E9.3314
G1 X115.731 Y96.901 E9.35402
G1 X116.631 Y96.832 E9.38404
G1 X117.222 Y96.83 E9.4037
G1 X118.197 Y96.855 E9.43614
G1 X118.742 Y96.879 E9.45428
G1 X119.443 Y96.921 E9.47764
G1 X120.341 Y97.015 E9.50767
G1 X120.904 Y97.115 E9.52669
G1 X121.888 Y97.319 E9.56011
G1 X122.437 Y97.444 E9.57884
G1 X123.084 Y97.602 E9.60099
G1 X123.951 Y97.855 E9.63103
G1 X124.486 Y98.054 E9.65001
G1 X125.451 Y98.444 E9.68463
G1 X125.794 Y98.588 E9.697
G1 X125.962 Y98.661 E9.7031
G1 X126.554 Y98.925 E9.72466
G1 X127.362 Y99.329 E9.7547
G1 X127.851 Y99.62 E9.77363
G1 X128.686 Y100.148 E9.80649
G1 X128.851 Y100.254 E9.81301
G1 X129.166 Y100.463 E9.82558
G1 X129.715 Y100.837 E9.84768
G1 X130.438 Y101.378 E9.87771
G1 X130.875 Y101.758 E9.89697
G1 X131.606 Y102.43 E9.93
G1 X131.749 Y102.564 E9.93652
G1 X132.047 Y102.85 E9.95025
G1 X132.505 Y103.302 E9.97166
G1 X133.119 Y103.964 E10.00169
G1 X133.472 Y104.405 E10.02048
G1 X134.077 Y105.204 E10.05381
G1 X134.189 Y105.354 E10.06004
G1 X134.334 Y105.553 E10.06822
G1 X134.781 Y106.186 E10.094
G1 X135.269 Y106.946 E10.12404
G1 X135.553 Y107.469 E10.14383
G1 X136.026 Y108.406 E10.17874
G1 X136.175 Y108.713 E10.19009
G1 X136.529 Y109.473 E10.21798
G1 X136.873 Y110.308 E10.24802
G1 X137.057 Y110.867 E10.26759
G1 X137.329 Y111.783 E10.29937
G1 X137.384 Y111.975 E10.30601
G1 X137.49 Y112.362 E10.31936
G1 X137.652 Y112.98 E10.34061
G1 X137.842 Y113.862 E10.37062
G1 X137.925 Y114.457 E10.3906
G1 X138.038 Y115.49 E10.42516
G1 X138.075 Y115.879 E10.43816
G1 X138.136 Y116.666 E10.46441
G1 X138.164 Y117.569 E10.49446
G1 X138.139 Y118.163 E10.51423
G1 X138.055 Y119.331 E10.55318
G1 X138.02 Y119.715 E10.56601
G1 X137.951 Y120.377 E10.58814
G1 X137.818 Y121.271 E10.61821
G1 X137.687 Y121.852 E10.63802
G1 X137.441 Y122.812 E10.67098
G1 X137.289 Y123.369 E10.69018
G1 X137.113 Y123.976 E10.7112
G1 X136.823 Y124.831 E10.74123
G1 X136.584 Y125.394 E10.76157
G1 X136.115 Y126.413 E10.79888
G1 X136.005 Y126.643 E10.80736
G1 X135.635 Y127.386 E10.83497
G1 X135.197 Y128.176 E10.86501
G1 X134.869 Y128.674 E10.88485
G1 X134.19 Y129.644 E10.92423
G1 X133.958 Y129.962 E10.93732
G1 X133.576 Y130.472 E10.95851
G1 X133.003 Y131.17 E10.98855
G1 X132.604 Y131.59 E11.00782
G1 X131.898 Y132.292 E11.04093
G1 X131.759 Y132.428 E11.0474
G1 X131.487 Y132.687 E11.05989
G1 X131.006 Y133.134 E11.08173
G1 X130.317 Y133.719 E11.11179
G1 X129.844 Y134.065 E11.13128
G1 X129.001 Y134.645 E11.16532
G1 X128.82 Y134.767 E11.17258
G1 X128.515 Y134.966 E11.18469
G1 X128 Y135.296 E11.20503
G1 X127.219 Y135.749 E11.23506
G1 X126.681 Y136.01 E11.25495
G1 X125.785 Y136.413 E11.28763
G1 X125.395 Y136.582 E11.30177
G1 X125.249 Y136.644 E11.30704
G1 X124.647 Y136.891 E11.32868
G1 X123.797 Y137.196 E11.35872
G1 X123.24 Y137.352 E11.37796
G1 X122.244 Y137.6 E11.4121
